src/assets/layout/Depositions.svg

<?xml version="1.0" encoding="UTF-8"?>
<svg width="25px" height="24px" viewBox="0 0 25 24" version="1.1" xmlns="http://www.w3.org/2000/svg" xmlns:xlink="http://www.w3.org/1999/xlink">
    <g id="Pre-deposition" stroke="none" stroke-width="1" fill="none" fill-rule="evenodd">
        <g id="2.8.schedule.deposition.My.Depositions.ADMIN" transform="translate(-26.000000, -270.000000)">
            <g id="Components/Navigation/Sidebar" transform="translate(0.000000, 65.000000)">
                <g id="Components/Buttons/Sidebar.on-Copy-3" transform="translate(16.000000, 197.000000)">
                    <g id="Foundations/Icons/Dashboard" transform="translate(10.546157, 8.000000)" fill="#C09853">
                        <path d="M21.4339623,14.4484139 C21.7358491,14.4480213 21.9849059,14.6943072 22,15.0081548 C22,15.1644205 21.9403641,15.3142859 21.8342114,15.4247824 C21.7280587,15.5352789 21.5840848,15.5973552 21.4339623,15.5973552 L21.4339623,15.5973552 L19.3867925,15.5973552 L18.5754717,18.2782172 C18.5041986,18.5248127 18.2851175,18.6928467 18.0377358,18.6906575 L18.0377358,18.6906575 L16.490566,18.6906575 L16.490566,21.3813395 C16.490566,21.706746 16.2371423,21.97054 15.9245283,21.97054 C15.6119143,21.97054 15.3584906,21.706746 15.3584906,21.3813395 L15.3584906,21.3813395 L15.3584906,18.6906575 L8.63207547,18.6906575 L8.63207547,21.4107996 C8.63207547,21.736206 8.37865175,22 8.06603774,22 C7.75342373,22 7.5,21.736206 7.5,21.4107996 L7.5,21.4107996 L7.5,18.7201176 L5.88679245,18.7201176 C5.63693967,18.7234213 5.41456437,18.5558015 5.33962264,18.3076772 L5.33962264,18.3076772 L4.53773585,15.6268152 L2.56603774,15.6268152 C2.25342373,15.6268152 2,15.3630212 2,15.0376148 C2,14.7122084 2.25342373,14.4484139 2.56603774,14.4484139 L2.56603774,14.4484139 Z M18.2264151,15.6268152 L5.77358491,15.6268152 L6.33962264,17.5417167 L17.6603774,17.5417167 L18.2264151,15.6268152 Z M12.1132075,2 C13.7490903,2 15.1916363,3.11602781 15.6633038,4.7465372 C16.1349713,6.3770466 15.5242722,8.13663399 14.1603774,9.07687036 C15.6604496,9.86946403 16.6076909,11.469823 16.6132968,13.2209135 C16.6147903,13.3064357 16.5953031,13.3909547 16.5566038,13.4664136 L16.5566038,13.4664136 L15.5377358,13.4664136 C15.4990365,13.3909547 15.4795494,13.3064357 15.4811321,13.2209135 C15.4759817,11.2962209 13.9810825,9.73576601 12.1320755,9.72499084 L12.1320755,9.72499084 L11.9485548,9.73119787 C10.1867842,9.84033051 8.79242465,11.361916 8.79245283,13.2209135 C8.79403555,13.3064357 8.77454842,13.3909547 8.73584906,13.4664136 L8.73584906,13.4664136 L7.71698113,13.4664136 C7.67828177,13.3909547 7.65879464,13.3064357 7.66028809,13.2209135 C7.65892508,11.4812041 8.58577497,9.88459222 10.0660377,9.07687036 C8.70214289,8.13663399 8.09144383,6.3770466 8.56311131,4.7465372 C9.03477879,3.11602781 10.4773247,2 12.1132075,2 Z M19.2264151,9.51230362 C19.7651822,9.51230362 20.2354409,9.89239256 20.3689049,10.4357266 C20.5023689,10.9790607 20.2650962,11.5474618 19.7924528,11.8166524 L19.7924528,11.8166524 L19.7924528,13.2110934 C19.7940355,13.2966157 19.7745484,13.3811347 19.7358491,13.4565936 L19.7358491,13.4565936 L18.7169811,13.4565936 C18.6782818,13.3811347 18.6587946,13.2966157 18.6603774,13.2110934 L18.6603774,13.2110934 L18.6603774,11.8166524 C18.187734,11.5474618 17.9504613,10.9790607 18.0839253,10.4357266 C18.2173892,9.89239256 18.687648,9.51230362 19.2264151,9.51230362 Z M12.1289423,3.16524383 C10.7025695,3.16704551 9.54716981,4.37116581 9.54716981,5.85590796 C9.55236668,7.34351765 10.7123713,8.54658997 12.1415094,8.54658997 L12.1415094,8.54658997 L12.3048247,8.54068462 C13.6548227,8.44791055 14.7203078,7.27701763 14.7169813,5.84938517 C14.7135062,4.36464741 13.5553151,3.16344618 12.1289423,3.16524383 Z" id="Combined-Shape"></path>
                    </g>
                </g>
            </g>
        </g>
    </g>
</svg>

<svg viewBox="0 0 24 24" xmlns="http://www.w3.org/2000/svg"><path d="M21.434 14.448c.302 0 .55.246.566.56 0 .156-.06.306-.166.417a.555.555 0 01-.4.172h-2.047l-.812 2.681a.56.56 0 01-.537.413H16.49v2.69c0 .326-.254.59-.566.59a.578.578 0 01-.567-.59v-2.69H8.632v2.72c0 .325-.253.589-.566.589a.578.578 0 01-.566-.59v-2.69H5.887a.569.569 0 01-.547-.412l-.802-2.681H2.566a.578.578 0 01-.566-.59c0-.325.253-.589.566-.589zm-3.208 1.179H5.774l.566 1.915h11.32l.566-1.915zM12.113 2c1.636 0 3.079 1.116 3.55 2.747.472 1.63-.139 3.39-1.503 4.33 1.5.792 2.448 2.393 2.453 4.144a.519.519 0 01-.056.245h-1.02a.517.517 0 01-.056-.245c-.005-1.925-1.5-3.485-3.349-3.496l-.183.006c-1.762.11-3.157 1.63-3.157 3.49a.517.517 0 01-.056.245H7.717a.519.519 0 01-.057-.245c-.001-1.74.926-3.336 2.406-4.144-1.364-.94-1.975-2.7-1.503-4.33C9.035 3.116 10.477 2 12.113 2zm7.113 7.512c.54 0 1.01.38 1.143.924a1.247 1.247 0 01-.577 1.38v1.395a.517.517 0 01-.056.246h-1.019a.517.517 0 01-.057-.246v-1.394a1.247 1.247 0 01-.576-1.381 1.189 1.189 0 011.142-.924zM12.13 3.165c-1.426.002-2.582 1.206-2.582 2.69.005 1.489 1.165 2.692 2.595 2.692l.163-.006c1.35-.093 2.415-1.264 2.412-2.692-.003-1.484-1.162-2.686-2.588-2.684z" fill-rule="evenodd"/></svg>
